src/images/icons/check_icon.svg

<svg width="18" height="14" viewBox="0 0 18 14" fill="none" xmlns="http://www.w3.org/2000/svg">
<path d="M15.5458 0.796199C14.9178 1.07716 14.3159 1.42022 13.7414 1.80284C12.5859 2.56306 11.5296 3.4683 10.5387 4.43369C9.54834 5.40146 8.62628 6.43709 7.75444 7.51393C7.53637 7.78321 6.5601 8.98216 6.5601 8.98216L2.49999 2.89807L0.967285 7.14661L6.45783 13.6947C6.991 12.6153 7.50411 11.5497 8.00739 10.6239C8.13245 10.3885 8.26341 10.1669 8.38859 9.9419C8.38859 9.9419 9.03292 8.80922 9.20237 8.5239C9.87996 7.38271 10.6124 6.27109 11.4189 5.21508C12.2263 4.16101 13.104 3.15471 14.0991 2.27008C14.5942 1.82485 15.1212 1.41319 15.6859 1.05494C16.2494 0.695996 16.8482 0.381674 17.4886 0.155762C16.8224 0.286838 16.1723 0.514467 15.5458 0.796199Z" fill="#FF6B09"/>
</svg>

<svg width="18" height="14" fill="none" xmlns="http://www.w3.org/2000/svg"><path d="M15.546.796c-.628.281-1.23.624-1.805 1.007-1.155.76-2.211 1.665-3.202 2.63a35.71 35.71 0 0 0-2.785 3.08c-.218.27-1.194 1.47-1.194 1.47L2.5 2.897.967 7.147l5.49 6.548c.534-1.08 1.047-2.145 1.55-3.071.125-.236.256-.457.382-.682 0 0 .644-1.133.813-1.418a34.248 34.248 0 0 1 2.217-3.309c.807-1.054 1.685-2.06 2.68-2.945a11.976 11.976 0 0 1 1.587-1.215 8.849 8.849 0 0 1 1.803-.9 8.999 8.999 0 0 0-1.943.641Z" fill="#FF6B09"/></svg>
